;FLAVOR:Marlin
;TARGET_MACHINE.NAME:Unknown
;TIME:6666
;Filament used: 0m
;Layer height: 0.1
;MINX:2.14748e+06
;MINY:2.14748e+06
;MINZ:2.14748e+06
;MAXX:-2.14748e+06
;MAXY:-2.14748e+06
;MAXZ:-2.14748e+06

;Generated with Cura_SteamEngine None
T1
M104 S215
M105
M109 S215
M82 ;absolute extrusion mode
G28 ;Home
G1 Z15.0 F6000 ;Move the platform down 15mm
;Prime the extruder
G92 E0
G1 F200 E3
G92 E0
G92 E0
G92 E0
G1 F1500 E-6.5
;LAYER_COUNT:48
;LAYER:0
M107
G0 F3600 X45.876 Y42.002 Z0.3
;TYPE:SKIRT
G1 F1500 E0
G1 F1800 X47.225 Y40.823 E0.0337
G1 X48.452 Y39.854 E0.06311
G1 X50.543 Y39.074 E0.10509
G1 X51.645 Y38.836 E0.1263
G1 X53.49 Y38.871 E0.16101
G1 X53.643 Y38.726 E0.16498
G1 X55.138 Y37.729 E0.19878
G1 X56.72 Y37.073 E0.23099
G1 X58.605 Y36.76 E0.26694
G1 X61.555 Y37.024 E0.32265
G1 X63.678 Y37.861 E0.36558
G1 X65.165 Y38.982 E0.4006
G1 X66.101 Y39.945 E0.42587
G1 X66.337 Y39.955 E0.43031
G1 X68.541 Y40.45 E0.4728
G1 X69.767 Y41.085 E0.49877
G1 X71.111 Y42.027 E0.52964
G1 X72.251 Y43.332 E0.56224
G1 X73.342 Y44.701 E0.59517
G1 X74.097 Y47.11 E0.64266
G1 X74.306 Y48.361 E0.66651
G1 X74.195 Y49.6 E0.68991
G1 X74.376 Y49.794 E0.69491
G1 X75.347 Y51.313 E0.72882
G1 X76.01 Y52.735 E0.75833
G1 X76.325 Y54.818 E0.79796
G1 X76.07 Y57.678 E0.85197
G1 X75.245 Y59.78 E0.89445
G1 X74.354 Y61.078 E0.92406
G1 X73.144 Y62.22 E0.95536
G1 X73.134 Y62.402 E0.95879
G1 X72.685 Y64.539 E0.99986
G1 X71.876 Y66.079 E1.03259
G1 X71.072 Y67.227 E1.05895
G1 X69.762 Y68.378 E1.09175
G1 X68.508 Y69.373 E1.12186
G1 X66.49 Y70.11 E1.16227
G1 X65.162 Y70.388 E1.1878
G1 X63.421 Y70.346 E1.22056
G1 X62.269 Y71.282 E1.24848
G1 X61.168 Y71.791 E1.27129
G1 X59.457 Y72.312 E1.30494
G1 X58.226 Y72.448 E1.32823
G1 X55.304 Y72.183 E1.38342
G1 X53.282 Y71.332 E1.42469
G1 X52.127 Y70.556 E1.45086
G1 X50.879 Y69.278 E1.48447
G1 X50.7 Y69.27 E1.48784
G1 X48.366 Y68.788 E1.53267
G1 X46.036 Y67.402 E1.58366
G1 X44.734 Y65.916 E1.62083
G1 X43.736 Y64.648 E1.65118
G1 X42.876 Y62.413 E1.69623
G1 X42.718 Y60.855 E1.72568
G1 X42.757 Y59.61 E1.74911
G1 X42.584 Y59.425 E1.75388
G1 X41.582 Y57.903 E1.78816
G1 X40.949 Y56.377 E1.81923
G1 X40.633 Y54.471 E1.85557
G1 X40.913 Y51.422 E1.91317
G1 X41.793 Y49.42 E1.95431
G1 X42.496 Y48.299 E1.9792
G1 X43.845 Y46.983 E2.01465
G1 X43.853 Y46.827 E2.01758
G1 X44.146 Y45.326 E2.04635
G1 X44.616 Y43.9 E2.07459
G1 X45.876 Y42.002 E2.11745
G0 F3600 X46.179 Y42.268
G1 F1800 X47.473 Y41.137 E2.14978
G1 X48.65 Y40.207 E2.17799
G1 X50.683 Y39.449 E2.21881
G1 X51.682 Y39.237 E2.23802
G1 X53.655 Y39.274 E2.27514
G1 X53.865 Y39.059 E2.28079
G1 X55.327 Y38.084 E2.31385
G1 X56.831 Y37.461 E2.34447
G1 X58.624 Y37.163 E2.37866
G1 X61.461 Y37.417 E2.43224
G1 X63.481 Y38.213 E2.47308
G1 X64.878 Y39.261 E2.50593
G1 X65.932 Y40.345 E2.53437
G1 X66.249 Y40.345 E2.54033
G1 X68.401 Y40.828 E2.58182
G1 X69.537 Y41.413 E2.60586
G1 X70.844 Y42.329 E2.63588
G1 X71.938 Y43.581 E2.66715
G1 X72.982 Y44.891 E2.69866
G1 X73.702 Y47.176 E2.74373
G1 X73.903 Y48.38 E2.76669
G1 X73.78 Y49.75 E2.79256
G1 X74.039 Y50.01 E2.79947
G1 X74.984 Y51.482 E2.83237
G1 X75.624 Y52.855 E2.86087
G1 X75.923 Y54.83 E2.89844
G1 X75.677 Y57.585 E2.95047
G1 X74.89 Y59.59 E2.99099
G1 X74.048 Y60.818 E3.01899
G1 X72.746 Y62.046 E3.05266
G1 X72.743 Y62.32 E3.05781
G1 X72.306 Y64.401 E3.09781
G1 X71.548 Y65.849 E3.12856
G1 X70.769 Y66.961 E3.1541
G1 X69.513 Y68.065 E3.18555
G1 X68.309 Y69.02 E3.21446
G1 X66.408 Y69.718 E3.25255
G1 X65.124 Y69.987 E3.27723
G1 X63.284 Y69.942 E3.31185
G1 X62.059 Y70.938 E3.34155
G1 X61.051 Y71.408 E3.36247
G1 X59.376 Y71.918 E3.39541
G1 X58.218 Y72.046 E3.41732
G1 X55.404 Y71.791 E3.47047
G1 X53.472 Y70.978 E3.5099
G1 X52.386 Y70.248 E3.53451
G1 X51.048 Y68.879 E3.57052
G1 X50.781 Y68.878 E3.57554
G1 X48.512 Y68.409 E3.61913
G1 X46.296 Y67.091 E3.66763
G1 X45.035 Y65.652 E3.70362
G1 X44.088 Y64.449 E3.73242
G1 X43.269 Y62.32 E3.77533
G1 X43.118 Y60.867 E3.80281
G1 X43.162 Y59.449 E3.82949
G1 X42.918 Y59.205 E3.83598
G1 X41.938 Y57.717 E3.8695
G1 X41.337 Y56.266 E3.89904
G1 X41.036 Y54.453 E3.93361
G1 X41.305 Y51.522 E3.98898
G1 X42.132 Y49.633 E4.02777
G1 X42.812 Y48.549 E4.05184
G1 X44.115 Y47.277 E4.08609
G1 X44.244 Y47.183 E4.08909
G1 X44.246 Y46.904 E4.09434
G1 X44.539 Y45.403 E4.12311
G1 X44.98 Y44.074 E4.14945
G1 X46.179 Y42.268 E4.19022
G0 F3600 X46.482 Y42.534
G1 F1800 X47.721 Y41.451 E4.22118
G1 X48.85 Y40.559 E4.24824
G1 X50.766 Y39.84 E4.28674
G1 X51.719 Y39.638 E4.30506
G1 X53.51 Y39.671 E4.33876
G1 X53.784 Y39.725 E4.34401
G1 X54.087 Y39.392 E4.35248
G1 X55.516 Y38.439 E4.38479
G1 X56.941 Y37.849 E4.4138
G1 X58.643 Y37.566 E4.44626
G1 X61.367 Y37.81 E4.4977
G1 X63.283 Y38.565 E4.53644
G1 X64.591 Y39.54 E4.56713
G1 X65.559 Y40.536 E4.59326
G1 X65.7 Y40.754 E4.59814
G1 X66.161 Y40.735 E4.60682
G1 X68.263 Y41.207 E4.64734
G1 X69.307 Y41.741 E4.6694
G1 X70.577 Y42.631 E4.69857
G1 X71.625 Y43.83 E4.72853
G1 X72.623 Y45.083 E4.75866
G1 X73.307 Y47.242 E4.80126
G1 X73.5 Y48.399 E4.82333
G1 X73.364 Y49.909 E4.85184
G1 X73.703 Y50.227 E4.86059
G1 X74.621 Y51.651 E4.89246
G1 X75.238 Y52.975 E4.91993
G1 X75.521 Y54.842 E4.95545
G1 X75.284 Y57.492 E5.0055
G1 X74.535 Y59.4 E5.04406
G1 X73.743 Y60.555 E5.0704
G1 X72.557 Y61.674 E5.10107
G1 X72.338 Y61.816 E5.10598
G1 X72.352 Y62.238 E5.11393
G1 X71.927 Y64.262 E5.15283
G1 X71.22 Y65.619 E5.18161
G1 X70.466 Y66.695 E5.20633
G1 X69.264 Y67.752 E5.23644
G1 X68.112 Y68.666 E5.2641
G1 X66.27 Y69.342 E5.30101
G1 X65.087 Y69.586 E5.32373
G1 X63.433 Y69.545 E5.35485
G1 X63.195 Y69.499 E5.35941
G1 X61.847 Y70.596 E5.3921
G1 X60.934 Y71.025 E5.41108
G1 X59.295 Y71.524 E5.4433
G1 X58.21 Y71.644 E5.46384
G1 X55.504 Y71.399 E5.51495
G1 X53.662 Y70.624 E5.55254
G1 X52.645 Y69.94 E5.57559
G1 X51.429 Y68.696 E5.60832
G1 X51.281 Y68.47 E5.6134
G1 X50.862 Y68.486 E5.62128
G1 X48.658 Y68.03 E5.66362
G1 X46.556 Y66.78 E5.70962
G1 X45.336 Y65.388 E5.74444
G1 X44.44 Y64.25 E5.77169
G1 X43.662 Y62.227 E5.81246
G1 X43.518 Y60.879 E5.83796
G1 X43.558 Y59.501 E5.86389
G1 X43.596 Y59.307 E5.86761
G1 X43.252 Y58.985 E5.87647
G1 X42.294 Y57.531 E5.90923
G1 X41.725 Y56.156 E5.93722
G1 X41.439 Y54.435 E5.97003
G1 X41.697 Y51.625 E6.02311
G1 X42.471 Y49.846 E6.05961
G1 X43.128 Y48.799 E6.08286
G1 X44.394 Y47.563 E6.11614
G1 X44.649 Y47.396 E6.12188
G1 X44.639 Y46.981 E6.12968
G1 X44.932 Y45.48 E6.15845
G1 X45.343 Y44.25 E6.18285
G1 X46.482 Y42.534 E6.22159
G0 F3600 X46.785 Y42.8
G1 F1800 X47.969 Y41.765 E6.25117
G1 X49.05 Y40.911 E6.27708
G1 X50.849 Y40.231 E6.31326
G1 X51.756 Y40.039 E6.3307
G1 X53.503 Y40.071 E6.36357
G1 X53.931 Y40.171 E6.37184
G1 X54.309 Y39.725 E6.38283
G1 X55.705 Y38.794 E6.4144
G1 X57.051 Y38.237 E6.4418
G1 X58.662 Y37.969 E6.47252
G1 X61.273 Y38.203 E6.52183
G1 X63.088 Y38.918 E6.55852
G1 X64.304 Y39.819 E6.58699
G1 X65.272 Y40.815 E6.61312
G1 X65.481 Y41.174 E6.62093
G1 X66.073 Y41.125 E6.63211
G1 X68.128 Y41.586 E6.67172
G1 X69.077 Y42.069 E6.69175
G1 X70.31 Y42.933 E6.72007
G1 X71.312 Y44.079 E6.74871
G1 X72.264 Y45.275 E6.77746
G1 X72.912 Y47.308 E6.8176
G1 X73.097 Y48.418 E6.83877
G1 X72.948 Y50.077 E6.8701
G1 X73.367 Y50.444 E6.88058
G1 X74.258 Y51.82 E6.91141
G1 X74.851 Y53.092 E6.93781
G1 X75.118 Y54.858 E6.97141
G1 X74.891 Y57.399 E7.0194
G1 X74.18 Y59.21 E7.056
G1 X73.438 Y60.292 E7.08067
G1 X72.282 Y61.383 E7.11057
G1 X71.922 Y61.601 E7.11849
G1 X71.961 Y62.156 E7.12896
G1 X71.548 Y64.125 E7.1668
G1 X70.892 Y65.39 E7.19361
G1 X70.165 Y66.428 E7.21744
G1 X69.015 Y67.439 E7.24625
G1 X67.915 Y68.312 E7.27266
G1 X66.132 Y68.966 E7.30839
G1 X65.052 Y69.185 E7.32912
G1 X63.443 Y69.145 E7.35939
G1 X63.095 Y69.065 E7.36611
G1 X61.634 Y70.254 E7.40154
G1 X60.764 Y70.663 E7.41962
G1 X59.251 Y71.126 E7.44939
G1 X58.202 Y71.242 E7.46924
G1 X55.604 Y71.007 E7.51831
G1 X53.852 Y70.27 E7.55406
G1 X52.904 Y69.632 E7.57556
G1 X51.715 Y68.416 E7.60755
G1 X51.497 Y68.053 E7.61551
G1 X50.943 Y68.094 E7.62596
G1 X48.804 Y67.651 E7.66705
G1 X46.816 Y66.469 E7.71056
G1 X45.637 Y65.124 E7.7442
G1 X44.792 Y64.051 E7.76989
G1 X44.055 Y62.135 E7.80851
G1 X43.918 Y60.891 E7.83205
G1 X43.958 Y59.513 E7.85798
G1 X44.042 Y59.167 E7.86468
G1 X43.586 Y58.765 E7.87612
G1 X42.65 Y57.345 E7.90811
G1 X42.112 Y56.045 E7.93457
G1 X41.842 Y54.418 E7.9656
G1 X42.089 Y51.726 E8.01645
G1 X42.81 Y50.059 E8.05061
G1 X43.444 Y49.049 E8.07304
G1 X44.673 Y47.849 E8.10535
G1 X45.06 Y47.616 E8.11385
G1 X45.032 Y47.058 E8.12436
G1 X45.325 Y45.557 E8.15313
G1 X45.705 Y44.427 E8.17555
G1 X46.785 Y42.8 E8.21229
G0 F3600 X47.088 Y43.066
G1 F1800 X48.217 Y42.079 E8.2405
G1 X49.25 Y41.263 E8.26526
G1 X50.932 Y40.622 E8.29912
G1 X51.793 Y40.44 E8.31567
G1 X53.496 Y40.471 E8.34771
G1 X54.074 Y40.621 E8.35894
G1 X54.576 Y40.028 E8.37356
G1 X55.898 Y39.147 E8.40344
G1 X57.157 Y38.625 E8.42908
G1 X58.681 Y38.372 E8.45814
G1 X61.179 Y38.596 E8.50532
G1 X62.893 Y39.271 E8.53997
G1 X64.017 Y40.098 E8.56622
G1 X64.985 Y41.094 E8.59234
G1 X65.252 Y41.594 E8.603
G1 X66.047 Y41.529 E8.61801
G1 X67.991 Y41.965 E8.65548
G1 X68.847 Y42.397 E8.67352
G1 X70.043 Y43.235 E8.70099
G1 X70.999 Y44.328 E8.72831
G1 X71.905 Y45.466 E8.75567
G1 X72.517 Y47.374 E8.79336
G1 X72.694 Y48.437 E8.81363
G1 X72.549 Y50.055 E8.84419
G1 X72.504 Y50.23 E8.84759
G1 X73.032 Y50.662 E8.86042
G1 X73.895 Y51.989 E8.8902
G1 X74.465 Y53.212 E8.91558
G1 X74.716 Y54.87 E8.94712
G1 X74.498 Y57.306 E8.99313
G1 X73.825 Y59.02 E9.02776
G1 X73.133 Y60.029 E9.05078
G1 X72.007 Y61.092 E9.07991
G1 X71.497 Y61.382 E9.09094
G1 X71.57 Y62.074 E9.10403
G1 X71.168 Y63.99 E9.14086
G1 X70.564 Y65.16 E9.16562
G1 X69.862 Y66.162 E9.18864
G1 X68.766 Y67.126 E9.21609
G1 X67.717 Y67.959 E9.24129
G1 X66.052 Y68.574 E9.27468
G1 X65.017 Y68.784 E9.29455
G1 X63.453 Y68.745 E9.32397
G1 X62.927 Y68.609 E9.33419
G1 X62.721 Y68.854 E9.34022
G1 X61.421 Y69.912 E9.37174
G1 X60.647 Y70.28 E9.38786
G1 X59.169 Y70.732 E9.41694
G1 X58.194 Y70.84 E9.43539
G1 X55.704 Y70.615 E9.48242
G1 X54.044 Y69.917 E9.51629
G1 X53.161 Y69.322 E9.53632
G1 X52.001 Y68.136 E9.56753
G1 X51.716 Y67.627 E9.5785
G1 X51.024 Y67.702 E9.59159
G1 X48.951 Y67.273 E9.63142
G1 X47.075 Y66.157 E9.67248
G1 X45.951 Y64.876 E9.70453
G1 X45.142 Y63.849 E9.72913
G1 X44.448 Y62.043 E9.76552
G1 X44.316 Y60.847 E9.78815
G1 X44.358 Y59.526 E9.81301
G1 X44.496 Y59.024 E9.82281
G1 X43.92 Y58.545 E9.8369
G1 X43.006 Y57.159 E9.86813
G1 X42.5 Y55.935 E9.89304
G1 X42.245 Y54.4 E9.92231
G1 X42.481 Y51.829 E9.97088
G1 X43.149 Y50.272 E10.00275
G1 X43.76 Y49.299 E10.02436
G1 X44.952 Y48.135 E10.0557
G1 X45.478 Y47.84 E10.06704
G1 X45.425 Y47.134 E10.08036
G1 X45.704 Y45.685 E10.10812
G1 X46.068 Y44.603 E10.12959
G1 X47.088 Y43.066 E10.16429
G0 F3600 X47.391 Y43.332
G1 F1800 X48.465 Y42.393 E10.19113
G1 X49.449 Y41.616 E10.21471
G1 X51.075 Y40.996 E10.24745
G1 X51.831 Y40.841 E10.26196
G1 X53.489 Y40.871 E10.29316
G1 X54.212 Y41.077 E10.3073
G1 X54.843 Y40.331 E10.32568
G1 X56.087 Y39.502 E10.3538
G1 X57.268 Y39.013 E10.37784
G1 X58.699 Y38.775 E10.40513
G1 X61.085 Y38.989 E10.45019
G1 X62.698 Y39.624 E10.4828
G1 X63.73 Y40.377 E10.50683
G1 X64.658 Y41.332 E10.53188
G1 X65.023 Y42.015 E10.54644
G1 X66.021 Y41.933 E10.56528
G1 X67.853 Y42.343 E10.60059
G1 X68.617 Y42.725 E10.61666
G1 X69.776 Y43.537 E10.64328
G1 X70.686 Y44.577 E10.66928
G1 X71.546 Y45.657 E10.69525
G1 X72.122 Y47.44 E10.73049
G1 X72.291 Y48.456 E10.74987
G1 X72.151 Y50.019 E10.77938
G1 X72.043 Y50.368 E10.78626
G1 X72.729 Y50.93 E10.80294
G1 X73.532 Y52.158 E10.83054
G1 X74.079 Y53.332 E10.8549
G1 X74.314 Y54.882 E10.88439
G1 X74.105 Y57.213 E10.92841
G1 X73.47 Y58.83 E10.96109
G1 X72.828 Y59.766 E10.98244
G1 X71.767 Y60.768 E11.00989
G1 X71.072 Y61.164 E11.02494
G1 X71.166 Y62.056 E11.04181
G1 X70.789 Y63.852 E11.07633
G1 X70.236 Y64.93 E11.09912
G1 X69.559 Y65.896 E11.12131
G1 X68.517 Y66.813 E11.14742
G1 X67.519 Y67.605 E11.17139
G1 X65.972 Y68.182 E11.20244
G1 X64.982 Y68.383 E11.22145
G1 X63.463 Y68.345 E11.25003
G1 X62.777 Y68.151 E11.26344
G1 X62.469 Y68.544 E11.27283
G1 X61.207 Y69.571 E11.30344
G1 X60.53 Y69.897 E11.31757
G1 X59.087 Y70.338 E11.34595
G1 X58.186 Y70.438 E11.36301
G1 X55.804 Y70.223 E11.408
G1 X54.237 Y69.564 E11.43997
G1 X53.418 Y69.012 E11.45855
G1 X52.323 Y67.893 E11.488
G1 X51.935 Y67.2 E11.50294
G1 X51.043 Y67.297 E11.51982
G1 X49.097 Y66.894 E11.5572
G1 X47.335 Y65.846 E11.59576
G1 X46.265 Y64.628 E11.62626
G1 X45.493 Y63.648 E11.64973
G1 X44.839 Y61.947 E11.68401
G1 X44.716 Y60.86 E11.70459
G1 X44.758 Y59.539 E11.72945
G1 X44.955 Y58.885 E11.7423
G1 X44.22 Y58.274 E11.76027
G1 X43.362 Y56.973 E11.78959
G1 X42.887 Y55.824 E11.81298
G1 X42.648 Y54.383 E11.84045
G1 X42.873 Y51.93 E11.88679
G1 X43.488 Y50.485 E11.91633
G1 X44.074 Y49.552 E11.93706
G1 X45.194 Y48.458 E11.96651
G1 X45.896 Y48.064 E11.98165
G1 X45.828 Y47.157 E11.99876
G1 X46.083 Y45.812 E12.02451
G1 X46.43 Y44.78 E12.04499
G1 X47.391 Y43.332 E12.07768
G0 F3600 X47.694 Y43.598
G1 F1800 X48.713 Y42.707 E12.10314
G1 X49.65 Y41.967 E12.1256
G1 X51.155 Y41.388 E12.15593
G1 X51.868 Y41.242 E12.16962
G1 X53.429 Y41.27 E12.19899
G1 X54.35 Y41.532 E12.217
G1 X55.11 Y40.634 E12.23913
G1 X56.276 Y39.857 E12.26549
G1 X57.378 Y39.401 E12.28792
G1 X58.718 Y39.178 E12.31348
G1 X60.992 Y39.382 E12.35642
G1 X62.504 Y39.977 E12.38699
G1 X63.443 Y40.656 E12.40879
G1 X64.332 Y41.571 E12.43278
G1 X64.794 Y42.436 E12.45123
G1 X65.996 Y42.337 E12.47392
G1 X67.715 Y42.722 E12.50705
G1 X68.388 Y43.053 E12.52116
G1 X69.506 Y43.836 E12.54684
G1 X70.373 Y44.826 E12.57159
G1 X71.188 Y45.85 E12.59621
G1 X71.727 Y47.506 E12.62897
G1 X71.888 Y48.475 E12.64744
G1 X71.753 Y49.983 E12.67592
G1 X71.573 Y50.5 E12.68622
G1 X72.428 Y51.2 E12.70701
G1 X73.197 Y52.377 E12.73345
G1 X73.693 Y53.45 E12.75569
G1 X73.912 Y54.894 E12.78316
G1 X73.712 Y57.12 E12.8252
G1 X73.115 Y58.64 E12.85592
G1 X72.523 Y59.503 E12.87561
G1 X71.527 Y60.444 E12.90138
G1 X70.646 Y60.945 E12.92045
G1 X70.761 Y62.034 E12.94104
G1 X70.408 Y63.72 E12.97345
G1 X69.908 Y64.701 E12.99416
G1 X69.258 Y65.629 E13.01547
G1 X68.268 Y66.5 E13.04028
G1 X67.319 Y67.253 E13.06306
G1 X65.892 Y67.79 E13.09174
G1 X64.947 Y67.982 E13.10988
G1 X63.523 Y67.946 E13.13668
G1 X62.622 Y67.692 E13.15429
G1 X62.217 Y68.234 E13.16701
G1 X60.992 Y69.231 E13.19672
G1 X60.413 Y69.514 E13.20885
G1 X59.005 Y69.944 E13.23654
G1 X58.178 Y70.036 E13.25219
G1 X55.904 Y69.831 E13.29514
G1 X54.43 Y69.211 E13.32522
G1 X53.675 Y68.702 E13.34235
G1 X52.645 Y67.65 E13.37004
G1 X52.154 Y66.773 E13.38895
G1 X51.062 Y66.892 E13.40961
G1 X49.244 Y66.516 E13.44453
G1 X47.592 Y65.533 E13.48069
G1 X46.579 Y64.38 E13.50956
G1 X45.844 Y63.447 E13.53191
G1 X45.23 Y61.851 E13.56407
G1 X45.116 Y60.873 E13.58259
G1 X45.156 Y59.603 E13.60649
G1 X45.414 Y58.746 E13.62333
G1 X44.52 Y58.003 E13.6452
G1 X43.718 Y56.787 E13.6726
G1 X43.275 Y55.714 E13.69443
G1 X43.051 Y54.365 E13.72016
G1 X43.265 Y52.03 E13.76426
G1 X43.856 Y50.642 E13.79264
G1 X44.387 Y49.806 E13.81127
G1 X45.436 Y48.781 E13.83886
G1 X46.314 Y48.288 E13.8578
G1 X46.231 Y47.178 E13.87874
G1 X46.462 Y45.94 E13.90243
G1 X46.793 Y44.956 E13.92196
G1 X47.694 Y43.598 E13.95261
G0 F3600 X47.997 Y43.864
G1 F1800 X48.961 Y43.021 E13.9767
G1 X49.85 Y42.319 E13.99801
G1 X51.235 Y41.78 E14.02596
G1 X51.905 Y41.643 E14.03883
G1 X53.368 Y41.669 E14.06635
G1 X54.488 Y41.988 E14.08826
G1 X55.379 Y40.936 E14.11419
G1 X56.469 Y40.21 E14.13882
G1 X57.484 Y39.789 E14.15949
G1 X58.737 Y39.581 E14.18339
G1 X60.899 Y39.775 E14.22422
G1 X62.31 Y40.33 E14.25274
G1 X63.156 Y40.935 E14.2723
G1 X64.006 Y41.81 E14.29525
G1 X64.565 Y42.857 E14.31758
G1 X65.971 Y42.741 E14.34411
G1 X67.58 Y43.101 E14.37513
G1 X68.158 Y43.381 E14.38721
G1 X69.237 Y44.137 E14.41199
G1 X70.06 Y45.075 E14.43547
G1 X70.83 Y46.042 E14.45872
G1 X71.332 Y47.571 E14.48899
G1 X71.485 Y48.493 E14.50657
G1 X71.36 Y49.896 E14.53307
G1 X71.104 Y50.632 E14.54772
G1 X72.126 Y51.469 E14.57257
G1 X72.834 Y52.545 E14.5968
G1 X73.307 Y53.568 E14.618
G1 X73.51 Y54.906 E14.64346
G1 X73.319 Y57.027 E14.68352
G1 X72.76 Y58.45 E14.71228
G1 X72.218 Y59.24 E14.7303
G1 X71.287 Y60.12 E14.7544
G1 X70.221 Y60.727 E14.77747
