;FLAVOR:Marlin
;TIME:478
;Filament used: 0m, 0.297867m, 0m
;Layer height: 0.2
;MINX:115.608
;MINY:110.608
;MINZ:0.32
;MAXX:144.392
;MAXY:139.396
;MAXZ:4.92
;TARGET_MACHINE.NAME:creatbot-dx
;Generated with Cura_SteamEngine 5.7.2
T1
M140 S40
M105
M190 S40
M104 S285
M105
M109 S285
M82 ;absolute extrusion mode
M117 Initializing...
G21 ;metric values
G90 ;absolute coordinates
M107 ;start with fan off
G28 X0 Y0;home X/Y
G28 Z0 ; home Z
M82 ;absolute extrusion
M117 Printing...

G92 E0
G92 E0
G1 F600 E-2
;LAYER_COUNT:24
;LAYER:0
M107
M204 S1200
M205 X12.86 Y12.86
G0 F9000 X120.233 Y114.422 Z0.32
M204 S1000
M205 X12 Y12
;TYPE:SKIRT
G1 F600 E0
G1 F1800 X120.698 Y114.012 E0.03299
G1 X121.22 Y113.589 E0.06875
G1 X121.816 Y113.177 E0.1073
G1 X122.75 Y112.786 E0.16119
G1 X124.108 Y112.387 E0.23651
G1 X126.675 Y111.595 E0.37947
G1 X129.016 Y110.811 E0.51085
G1 X129.693 Y110.659 E0.54777
G1 X130.448 Y110.608 E0.58804
G1 X131.778 Y110.709 E0.65902
G1 X132.572 Y110.854 E0.70198
G1 X133.509 Y111.238 E0.75586
G1 X134.67 Y111.872 E0.82626
G1 X137.159 Y113.187 E0.97607
G1 X138.266 Y113.728 E1.04163
G1 X139.336 Y114.272 E1.10551
G1 X139.927 Y114.632 E1.14234
G1 X140.619 Y115.274 E1.19257
G1 X141.026 Y115.745 E1.2257
G1 X141.411 Y116.22 E1.25824
G1 X141.852 Y116.885 E1.3007
G1 X142.162 Y117.572 E1.34081
G1 X142.645 Y119.219 E1.43215
G1 X143.452 Y121.818 E1.57697
G1 X144.188 Y124.012 E1.70012
G1 X144.34 Y124.685 E1.73684
G1 X144.392 Y125.437 E1.77695
G1 X144.283 Y126.849 E1.85232
G1 X144.142 Y127.593 E1.89261
G1 X143.812 Y128.406 E1.93931
G1 X142.012 Y131.766 E2.14216
G1 X140.733 Y134.33 E2.29464
G1 X140.396 Y134.894 E2.3296
G1 X139.719 Y135.626 E2.38266
G1 X139.307 Y135.984 E2.41171
G1 X138.779 Y136.412 E2.44788
G1 X138.116 Y136.852 E2.49022
G1 X137.483 Y137.142 E2.52727
G1 X135.989 Y137.584 E2.61019
G1 X133.399 Y138.384 E2.75444
G1 X132.371 Y138.736 E2.81226
G1 X132.216 Y138.777 E2.8208
G1 X130.969 Y139.193 E2.89075
G1 X130.293 Y139.345 E2.92763
G1 X129.534 Y139.396 E2.96811
G1 X128.202 Y139.289 E3.03922
G1 X127.427 Y139.138 E3.08124
G1 X126.659 Y138.854 E3.12481
G1 X125.141 Y138.024 E3.21688
G1 X122.694 Y136.738 E3.36399
G1 X121.618 Y136.213 E3.4277
G1 X120.626 Y135.71 E3.48689
G1 X120.095 Y135.387 E3.51997
G1 X119.358 Y134.7 E3.57358
G1 X118.95 Y134.224 E3.60695
G1 X118.55 Y133.727 E3.6409
G1 X118.18 Y133.173 E3.67635
G1 X117.838 Y132.432 E3.71978
G1 X117.386 Y130.89 E3.80529
G1 X116.595 Y128.323 E3.94824
G1 X115.811 Y125.984 E4.07952
G1 X115.659 Y125.307 E4.11644
G1 X115.608 Y124.553 E4.15666
G1 X115.714 Y123.185 E4.22968
G1 X115.879 Y122.364 E4.27424
G1 X116.122 Y121.712 E4.31127
G1 X117.205 Y119.719 E4.43198
G1 X118.452 Y117.321 E4.57581
G1 X119.257 Y115.69 E4.6726
G1 X119.588 Y115.132 E4.70713
G1 X119.897 Y114.792 E4.73158
G0 F1620 X120.233 Y114.422
M204 S1200
M205 X12.86 Y12.86
G0 F9000 X120.497 Y114.722
M204 S1000
M205 X12 Y12
G1 F1800 X120.95 Y114.323 E4.7637
G1 X121.472 Y113.9 E4.79946
G1 X122.007 Y113.531 E4.83404
G1 X122.863 Y113.17 E4.88348
G1 X124.221 Y112.771 E4.9588
G1 X126.793 Y111.977 E5.10205
G1 X129.107 Y111.201 E5.23193
G1 X129.722 Y111.058 E5.26553
G1 X130.418 Y111.007 E5.30267
G1 X131.748 Y111.108 E5.37365
G1 X132.459 Y111.239 E5.41213
G1 X133.317 Y111.589 E5.46144
G1 X134.483 Y112.226 E5.53214
G1 X136.972 Y113.541 E5.68195
G1 X138.085 Y114.085 E5.74787
G1 X139.128 Y114.614 E5.81011
G1 X139.686 Y114.954 E5.84488
G1 X140.316 Y115.535 E5.89049
G1 X140.715 Y115.997 E5.92298
G1 X141.1 Y116.472 E5.95551
G1 X141.488 Y117.052 E5.99265
G1 X141.778 Y117.685 E6.0297
G1 X142.263 Y119.338 E6.12138
G1 X143.07 Y121.937 E6.2662
G1 X143.798 Y124.103 E6.3878
G1 X143.941 Y124.715 E6.42125
G1 X143.993 Y125.407 E6.45818
G1 X143.89 Y126.774 E6.53113
G1 X143.756 Y127.479 E6.56932
G1 X143.441 Y128.256 E6.61394
G1 X141.654 Y131.587 E6.8151
G1 X140.375 Y134.151 E6.96758
G1 X140.075 Y134.652 E6.99865
G1 X139.457 Y135.324 E7.04724
G1 X139.055 Y135.673 E7.07557
G1 X138.527 Y136.101 E7.11174
G1 X137.947 Y136.489 E7.14887
G1 X137.37 Y136.758 E7.18275
G1 X135.876 Y137.2 E7.26566
G1 X133.281 Y138.002 E7.4102
G1 X132.27 Y138.349 E7.46709
G1 X132.105 Y138.392 E7.47616
G1 X130.878 Y138.803 E7.54502
G1 X130.264 Y138.946 E7.57857
G1 X129.565 Y138.997 E7.61587
G1 X128.278 Y138.896 E7.68457
G1 X127.503 Y138.745 E7.72659
G1 X126.851 Y138.503 E7.7636
G1 X125.333 Y137.673 E7.85567
G1 X122.869 Y136.378 E8.0038
G1 X121.799 Y135.856 E8.06715
G1 X120.834 Y135.368 E8.1247
G1 X120.336 Y135.065 E8.15572
G1 X119.662 Y134.44 E8.20464
G1 X119.261 Y133.972 E8.23743
G1 X118.883 Y133.505 E8.26941
G1 X118.513 Y132.951 E8.30486
G1 X118.222 Y132.319 E8.34189
G1 X117.77 Y130.777 E8.4274
G1 X116.977 Y128.205 E8.57063
G1 X116.201 Y125.893 E8.70041
G1 X116.058 Y125.278 E8.73401
G1 X116.007 Y124.583 E8.7711
G1 X116.107 Y123.261 E8.84165
G1 X116.254 Y122.504 E8.88269
G1 X116.497 Y121.852 E8.91971
G1 X117.556 Y119.911 E9.03738
G1 X118.807 Y117.506 E9.18164
G1 X119.616 Y115.867 E9.27891
G1 X119.911 Y115.371 E9.30962
G1 X120.162 Y115.093 E9.32956
G0 F1620 X120.497 Y114.722
M204 S1200
M205 X12.86 Y12.86
G0 F9000 X120.762 Y115.022
M204 S1000
M205 X12 Y12
G1 F1800 X121.202 Y114.634 E9.36077
G1 X121.724 Y114.211 E9.39653
G1 X122.2 Y113.883 E9.42729
G1 X122.976 Y113.554 E9.47214
G1 X124.334 Y113.155 E9.54747
G1 X126.911 Y112.359 E9.691
G1 X129.201 Y111.59 E9.81955
G1 X129.754 Y111.457 E9.84982
G1 X130.388 Y111.406 E9.88367
G1 X131.718 Y111.507 E9.95465
G1 X132.344 Y111.624 E9.98854
G1 X133.125 Y111.94 E10.03337
G1 X134.296 Y112.58 E10.10439
G1 X136.785 Y113.895 E10.25419
G1 X137.904 Y114.442 E10.32048
G1 X138.947 Y114.971 E10.38271
G1 X139.442 Y115.273 E10.41357
G1 X140.013 Y115.797 E10.45481
G1 X140.404 Y116.249 E10.48662
G1 X140.789 Y116.724 E10.51916
G1 X141.125 Y117.221 E10.55108
G1 X141.394 Y117.798 E10.58496
G1 X141.881 Y119.457 E10.67697
G1 X142.691 Y122.065 E10.8223
G1 X143.409 Y124.197 E10.94202
G1 X143.542 Y124.748 E10.97218
G1 X143.594 Y125.378 E11.00582
G1 X143.497 Y126.699 E11.07631
G1 X143.37 Y127.365 E11.11239
G1 X143.07 Y128.106 E11.15493
G1 X141.296 Y131.409 E11.35445
G1 X140.032 Y133.945 E11.50524
G1 X139.752 Y134.412 E11.53422
G1 X139.195 Y135.022 E11.57818
G1 X138.803 Y135.362 E11.60579
G1 X138.275 Y135.79 E11.64196
G1 X137.778 Y136.126 E11.67389
G1 X137.201 Y136.395 E11.70777
G1 X135.764 Y136.816 E11.78745
G1 X133.163 Y137.62 E11.93233
G1 X132.14 Y137.971 E11.98989
G1 X131.988 Y138.01 E11.99824
G1 X130.784 Y138.414 E12.06582
G1 X130.232 Y138.547 E12.09604
G1 X129.595 Y138.598 E12.13004
G1 X128.352 Y138.503 E12.19638
G1 X127.64 Y138.369 E12.23494
G1 X127.043 Y138.152 E12.26874
G1 X125.525 Y137.322 E12.36081
G1 X123.055 Y136.024 E12.5093
G1 X121.979 Y135.499 E12.57301
G1 X121.042 Y135.026 E12.62887
G1 X120.577 Y134.743 E12.65784
G1 X119.966 Y134.179 E12.70209
G1 X119.572 Y133.72 E12.73428
G1 X119.194 Y133.253 E12.76625
G1 X118.875 Y132.782 E12.79653
G1 X118.606 Y132.206 E12.83036
G1 X118.154 Y130.664 E12.91587
G1 X117.359 Y128.087 E13.05938
G1 X116.59 Y125.799 E13.18784
G1 X116.457 Y125.246 E13.2181
G1 X116.406 Y124.612 E13.25195
G1 X116.5 Y123.335 E13.32009
G1 X116.63 Y122.641 E13.35767
G1 X116.848 Y122.044 E13.39149
G1 X117.907 Y120.103 E13.50916
G1 X119.162 Y117.691 E13.65385
G1 X119.96 Y116.072 E13.7499
G1 X120.238 Y115.605 E13.77882
G1 X120.428 Y115.393 E13.79397
G0 F1620 X120.762 Y115.022
M204 S1200
M205 X12.86 Y12.86
G0 F9000 X121.06 Y115.289
M204 S1000
M205 X12 Y12
G1 F1800 X121.454 Y114.945 E13.82181
G1 X121.976 Y114.522 E13.85756
G1 X122.393 Y114.236 E13.88447
G1 X123.089 Y113.938 E13.92476
G1 X124.447 Y113.539 E14.00009
G1 X127.039 Y112.738 E14.14446
G1 X129.298 Y111.978 E14.27129
G1 X129.789 Y111.855 E14.29823
G1 X130.359 Y111.805 E14.32868
G1 X131.644 Y111.9 E14.39725
G1 X132.232 Y112.01 E14.42908
G1 X132.933 Y112.291 E14.46927
G1 X134.109 Y112.934 E14.5406
G1 X136.598 Y114.249 E14.6904
G1 X137.723 Y114.799 E14.75704
G1 X138.766 Y115.328 E14.81928
G1 X139.198 Y115.592 E14.84622
G1 X139.742 Y116.092 E14.88554
G1 X140.093 Y116.501 E14.91422
G1 X140.478 Y116.976 E14.94676
G1 X140.764 Y117.393 E14.97367
G1 X141.01 Y117.911 E15.00419
G1 X141.499 Y119.576 E15.09654
G1 X142.312 Y122.193 E15.24237
G1 X143.021 Y124.294 E15.36037
G1 X143.144 Y124.784 E15.38725
G1 X143.195 Y125.35 E15.4175
G1 X143.104 Y126.624 E15.48547
G1 X142.984 Y127.253 E15.51954
G1 X142.718 Y127.917 E15.55761
G1 X140.938 Y131.231 E15.7578
G1 X139.689 Y133.739 E15.9069
G1 X139.429 Y134.172 E15.93378
G1 X138.933 Y134.72 E15.97311
G1 X138.551 Y135.051 E16.00001
G1 X138.023 Y135.479 E16.03618
G1 X137.606 Y135.765 E16.06309
G1 X137.089 Y136.011 E16.09356
G1 X135.652 Y136.432 E16.17324
G1 X133.045 Y137.238 E16.31846
G1 X132.04 Y137.584 E16.37502
G1 X131.87 Y137.628 E16.38436
G1 X130.687 Y138.026 E16.45079
G1 X130.197 Y138.149 E16.47767
G1 X129.625 Y138.199 E16.50823
G1 X128.382 Y138.104 E16.57457
G1 X127.774 Y137.992 E16.60747
G1 X127.235 Y137.801 E16.6379
G1 X125.717 Y136.971 E16.72997
G1 X123.241 Y135.67 E16.87881
G1 X122.159 Y135.142 E16.94288
G1 X121.25 Y134.684 E16.99705
G1 X120.818 Y134.421 E17.02396
G1 X120.269 Y133.918 E17.06359
G1 X119.882 Y133.468 E17.09517
G1 X119.523 Y133.026 E17.12548
G1 X119.236 Y132.61 E17.15237
G1 X118.99 Y132.093 E17.18284
G1 X118.538 Y130.551 E17.26835
G1 X117.741 Y127.969 E17.41215
G1 X116.978 Y125.702 E17.53944
G1 X116.855 Y125.211 E17.56638
G1 X116.805 Y124.641 E17.59683
G1 X116.899 Y123.364 E17.66497
G1 X117.007 Y122.775 E17.69684
G1 X117.199 Y122.236 E17.72729
G1 X118.258 Y120.295 E17.84495
G1 X119.517 Y117.876 E17.99008
G1 X120.304 Y116.277 E18.08492
G1 X120.563 Y115.842 E18.11186
G1 X120.726 Y115.66 E18.12486
G0 F1620 X121.06 Y115.289
M204 S1200
M205 X12.86 Y12.86
G1 F600 E16.12486
;MESH:8teeth-gear.stl
G0 F9000 X130.095 Y128.1
M204 S1000
M205 X12 Y12
;TYPE:WALL-INNER
G1 F600 E18.12486
G1 F1800 X129.355 Y128.026 E18.16444
G1 X128.851 Y127.878 E18.19239
G1 X128.291 Y127.592 E18.22585
G1 X127.697 Y127.078 E18.26765
G1 X127.309 Y126.551 E18.30248
G1 X126.994 Y125.762 E18.34769
G1 X126.896 Y124.973 E18.39
G1 X126.936 Y124.495 E18.41553
G1 X127.17 Y123.715 E18.45886
G1 X127.6 Y123.026 E18.50208
G1 X128.065 Y122.567 E18.53685
G1 X128.779 Y122.149 E18.58088
G1 X129.363 Y121.966 E18.61345
G1 X129.864 Y121.905 E18.64031
G1 X130.609 Y121.957 E18.68005
G1 X131.213 Y122.146 E18.71373
G1 X131.747 Y122.439 E18.74615
G1 X132.138 Y122.754 E18.77287
G1 X132.492 Y123.156 E18.80137
G1 X132.737 Y123.539 E18.82557
G1 X132.965 Y124.095 E18.85755
G1 X133.109 Y124.83 E18.8974
G1 X133.045 Y125.58 E18.93746
G1 X132.87 Y126.173 E18.97036
G1 X132.461 Y126.891 E19.01434
G1 X131.865 Y127.479 E19.05889
G1 X131.3 Y127.818 E19.09395
G1 X130.59 Y128.035 E19.13346
G0 F1620 X130.556 Y128.045
G0 X130.095 Y128.1
M204 S1200
M205 X12.86 Y12.86
G1 F600 E17.13346
G0 F9000 X130.192 Y130.419
M204 S1000
M205 X12 Y12
G1 F600 E19.13346
G1 F1800 X130.281 Y130.243 E19.14396
G1 X130.553 Y129.994 E19.16358
G1 X130.746 Y129.899 E19.17503
G1 X131.265 Y129.781 E19.20336
G1 X132.358 Y129.412 E19.26475
G1 X132.724 Y129.441 E19.28428
G1 X133.07 Y129.642 E19.30558
G1 X133.189 Y129.769 E19.31484
G1 X134.045 Y131.347 E19.41037
G1 X134.36 Y131.655 E19.43382
G1 X134.708 Y131.887 E19.45608
G1 X135.296 Y132.177 E19.49097
G1 X135.868 Y132.336 E19.52256
G1 X136.209 Y132.051 E19.54621
G1 X136.188 Y131.794 E19.55993
G1 X136.06 Y131.133 E19.59576
G1 X135.85 Y130.556 E19.62844
G1 X135.53 Y130.066 E19.65958
G1 X134.127 Y128.967 E19.75442
G1 X133.939 Y128.628 E19.77505
G1 X133.907 Y128.487 E19.78275
G1 X133.968 Y127.972 E19.81034
G1 X134.397 Y127.29 E19.85322
G1 X134.719 Y126.525 E19.89739
G1 X135.11 Y126.188 E19.92486
G1 X135.299 Y126.132 E19.93535
G1 X135.648 Y126.118 E19.95394
G1 X137.358 Y126.629 E20.04891
G1 X137.634 Y126.634 E20.0636
G1 X138.208 Y126.536 E20.09459
G1 X138.824 Y126.329 E20.12918
G1 X139.338 Y126.034 E20.16071
G1 X139.378 Y125.587 E20.1846
G1 X138.771 Y125.14 E20.22471
G1 X138.208 Y124.847 E20.25849
G1 X137.816 Y124.716 E20.28048
G1 X137.493 Y124.673 E20.29782
G1 X135.842 Y124.875 E20.38634
G1 X135.419 Y124.804 E20.40916
G1 X135.243 Y124.715 E20.41966
G1 X134.98 Y124.423 E20.44057
G1 X134.907 Y124.278 E20.44921
G1 X134.781 Y123.726 E20.47934
G1 X134.412 Y122.636 E20.54058
G1 X134.459 Y122.218 E20.56296
G1 X134.747 Y121.814 E20.58937
G1 X136.346 Y120.95 E20.68609
G1 X136.656 Y120.635 E20.70961
G1 X136.89 Y120.283 E20.7321
G1 X137.176 Y119.701 E20.76661
G1 X137.336 Y119.128 E20.79827
G1 X137.051 Y118.787 E20.82192
G1 X136.794 Y118.808 E20.83564
G1 X136.133 Y118.937 E20.87148
G1 X135.416 Y119.197 E20.91207
G1 X135.066 Y119.467 E20.93559
G1 X133.975 Y120.851 E21.02938
G1 X133.693 Y121.029 E21.04712
G1 X133.514 Y121.086 E21.05712
G1 X132.967 Y121.025 E21.08641
G1 X132.29 Y120.598 E21.129
G1 X131.499 Y120.266 E21.17466
G1 X131.189 Y119.885 E21.20079
G1 X131.102 Y119.392 E21.22744
G1 X131.629 Y117.642 E21.3247
G1 X131.634 Y117.358 E21.33981
G1 X131.536 Y116.788 E21.37059
G1 X131.33 Y116.171 E21.40521
G1 X131.034 Y115.658 E21.43672
G1 X130.587 Y115.618 E21.46061
G1 X130.14 Y116.224 E21.50068
G1 X129.846 Y116.791 E21.53467
G1 X129.715 Y117.181 E21.55656
G1 X129.673 Y117.5 E21.57368
G1 X129.875 Y119.154 E21.66236
G1 X129.804 Y119.577 E21.68518
G1 X129.715 Y119.753 E21.69568
G1 X129.357 Y120.069 E21.72109
G1 X128.735 Y120.215 E21.75509
G1 X128.095 Y120.43 E21.79102
G1 X127.827 Y120.546 E21.80656
G1 X127.378 Y120.583 E21.83053
G1 X127.133 Y120.492 E21.84444
G1 X126.807 Y120.228 E21.86677
G1 X125.951 Y118.65 E21.9623
G1 X125.64 Y118.344 E21.98552
G1 X125.287 Y118.109 E22.00809
G1 X124.701 Y117.82 E22.04286
G1 X124.128 Y117.662 E22.07449
G1 X123.787 Y117.946 E22.09811
G1 X123.808 Y118.202 E22.11177
G1 X123.936 Y118.859 E22.14739
G1 X124.199 Y119.582 E22.18834
G1 X124.467 Y119.931 E22.21175
G1 X125.851 Y121.025 E22.30564
G1 X126.054 Y121.36 E22.32648
G1 X126.088 Y121.505 E22.33441
G1 X126.035 Y122.01 E22.36143
G1 X125.599 Y122.707 E22.40518
G1 X125.27 Y123.486 E22.45018
G1 X124.885 Y123.807 E22.47686
G1 X124.392 Y123.894 E22.5035
G1 X122.641 Y123.367 E22.60081
G1 X122.362 Y123.362 E22.61566
G1 X121.789 Y123.46 E22.64659
G1 X121.172 Y123.67 E22.68128
G1 X120.658 Y123.963 E22.71276
G1 X120.618 Y124.409 E22.73659
G1 X121.224 Y124.855 E22.77663
G1 X121.791 Y125.149 E22.81062
G1 X122.183 Y125.281 E22.83263
G1 X122.505 Y125.326 E22.84994
G1 X124.154 Y125.121 E22.93836
G1 X124.577 Y125.192 E22.96119
G1 X124.753 Y125.281 E22.97169
G1 X125.048 Y125.626 E22.99584
G1 X125.215 Y126.261 E23.03078
G1 X125.43 Y126.902 E23.06676
G1 X125.579 Y127.306 E23.08968
G1 X125.583 Y127.618 E23.10628
G1 X125.492 Y127.863 E23.12019
G1 X125.228 Y128.188 E23.14247
G1 X123.649 Y129.045 E23.23808
G1 X123.341 Y129.36 E23.26152
G1 X123.109 Y129.708 E23.28378
G1 X122.82 Y130.295 E23.3186
G1 X122.662 Y130.868 E23.35023
G1 X122.946 Y131.209 E23.37385
G1 X123.202 Y131.189 E23.38751
G1 X123.863 Y131.06 E23.42335
G1 X124.44 Y130.85 E23.45603
G1 X124.93 Y130.53 E23.48717
G1 X126.025 Y129.145 E23.58113
G1 X126.36 Y128.942 E23.60197
G1 X126.505 Y128.907 E23.60991
G1 X126.88 Y128.929 E23.6299
G1 X127.091 Y129.011 E23.64195
G1 X127.706 Y129.398 E23.68062
G1 X128.417 Y129.698 E23.72168
G1 X128.551 Y129.794 E23.73046
G1 X128.808 Y130.11 E23.75213
G1 X128.864 Y130.299 E23.76262
G1 X128.878 Y130.648 E23.78121
G1 X128.367 Y132.358 E23.87619
G1 X128.362 Y132.634 E23.89088
G1 X128.46 Y133.207 E23.92181
G1 X128.671 Y133.824 E23.95651
G1 X128.963 Y134.338 E23.98797
G1 X129.409 Y134.378 E24.0118
G1 X129.856 Y133.771 E24.05192
G1 X130.149 Y133.208 E24.08569
G1 X130.281 Y132.814 E24.10781
G1 X130.326 Y132.491 E24.12516
